!!!COM: Dentice, Scipione
!!!CDT:
!!!PTL: Il terzo libro de madrigali a cinque voci
!!!PPP: Naples
!!!PPR: Giovanni Giacomo Carlino & Antonio Pace
!!!PDT: 1598
!!!PUB-format:
!!!RISM: D 1663
!!!rime: 81
!!!OTL: Costei, che su la fronte ha sparsa al vento
!!!AGN: Madrigal
!!!SCT: Trm0081b
!!!SCA: Trm0081b
!!!original-voices: 5
!!!extant-voices: 4
!!!complete: N
!!!final: G
**kern	**text	**kern	**text	**kern	**text	**kern	**text
*part4	*part4	*part3	*part3	*part2	*part2	*part1	*part1
*staff4	*staff4	*staff3	*staff3	*staff2	*staff2	*staff1	*staff1
*I"Quinto	*	*I"Tenore	*	*I"Alto	*	*I"Canto	*
*I'V	*	*I'T	*	*I'A	*	*I'C	*
*oclefC4	*	*oclefC4	*	*oclefC3	*	*oclefC1	*
*clefGv2	*	*clefGv2	*	*clefG2	*	*clefG2	*
*k[]	*	*k[]	*	*k[]	*	*k[]	*
*omet(C)	*	*omet(C)	*	*omet(C)	*	*omet(C)	*
*M4/2	*	*M4/2	*	*M4/2	*	*M4/2	*
=1	=1	=1	=1	=1	=1	=1	=1
!!LO:TX:a:t=[Prima parte.]
2d	Co-	0r	.	0r	.	0r	.
2.e	-stei,	.	.	.	.	.	.
4A	ch’in	.	.	.	.	.	.
4c	su	.	.	.	.	.	.
4c	la	.	.	.	.	.	.
=2	=2	=2	=2	=2	=2	=2	=2
4c	fron-	0r	.	0r	.	0r	.
4A	-te ha	.	.	.	.	.	.
8cL	spar-	.	.	.	.	.	.
8B	.	.	.	.	.	.	.
8c	.	.	.	.	.	.	.
8dJ	.	.	.	.	.	.	.
4c	.	.	.	.	.	.	.
2A	-s’al	.	.	.	.	.	.
[4c	ven-	.	.	.	.	.	.
=3	=3	=3	=3	=3	=3	=3	=3
4c]	.	2r	.	1r	.	0r	.
8BL	.	.	.	.	.	.	.
8AJ	.	.	.	.	.	.	.
2B	.	2d	Co-	.	.	.	.
1c	-to,	2.e	-stei,	2g	Co-	.	.
.	.	.	.	[2a	-stei,	.	.
.	.	4A	ch’in	.	.	.	.
=4	=4	=4	=4	=4	=4	=4	=4
2r	.	4c	su	4a]	.	0r	.
.	.	4c	la	4e	ch’in	.	.
4r	.	4c	fron-	4g	su	.	.
4d	ha	4B	-te ha	4g	la	.	.
4.e	spar-	8cL	spar-	4g	fron-	.	.
.	.	8B	.	.	.	.	.
.	.	8c	.	4e	-te ha	.	.
8d	.	8dJ	.	.	.	.	.
8eL	.	[2c	.	8gL	spar-	.	.
8fJ	.	.	.	8f	.	.	.
[4e	.	.	.	8g	.	.	.
.	.	.	.	8aJ	.	.	.
=5	=5	=5	=5	=5	=5	=5	=5
4e]	.	4c]	.	8g	.	4r	.
.	.	.	.	8e	-s’al	.	.
4d	-s’al	4B	-s’al	2g	ven-	4g	L’er-
2c	ven-	2A	ven-	.	.	8a	-ran-
.	.	.	.	.	.	8b	-te
.	.	.	.	4f#X	.	8cc	chio-
.	.	.	.	.	.	8a	-ma
4d	-to	2G	-to	4g	-to	2b	d’or,
4G	L’er-	.	.	4d	L’er-	.	.
8c	-ran-	2r	.	8e	-ran-	2cc	for-
8d	-te	.	.	8fnXi	-te	.	.
8e	chio-	.	.	8g	chio-	.	.
8c	-ma	.	.	8e	-ma	.	.
=6	=6	=6	=6	=6	=6	=6	=6
4d	d’or,	4r	.	2f	d’or,	4b	-tu-
4d	for-	4A	L’er-	.	.	4a	-na
4c	-tu-	8G	-ran-	2r	.	2ee	pa-
.	.	8A	-te	.	.	.	.
4B	-na	8B	chio-	.	.	.	.
.	.	8G	-ma	.	.	.	.
8AL	pa-	4c	d’or,	2a	for-	2cc	-re,
8B	.	.	.	.	.	.	.
8c	.	4A	<L’er-	.	.	.	.
8dJ	.	.	.	.	.	.	.
4e	.	8B	-ran-	4g	-tu-	2r	.
.	.	8c	-te	.	.	.	.
4A	-re,	8d	chio-	4f	-na	.	.
.	.	8A	-ma	.	.	.	.
=7	=7	=7	=7	=7	=7	=7	=7
4r	.	2c	d’or,>	2e	pa-	4r	.
4A	for-	.	.	.	.	2ee	for-
4c	-tu-	2A	for-	4f	-re,	.	.
4d	-na	.	.	4a	for-	2dd	-tu-
2e	pa-	4B	-tu-	4g	-tu-	.	.
.	.	4c	-na	4e	-na	4cc	-na
2d	-re:	2d	pa-	2g	pa-	2b	pa-
=8	=8	=8	=8	=8	=8	=8	=8
2r	.	2c	-re:	2g	-re:	2cc	-re:
2.A	An-	2.c	An-	2.f	An-	2.a	An-
4A	-z’è	4c	-z’è	4f	-z’è	4a	-z’è
2A	ve-	4d	ve-	2f	ve-	2a	ve-
.	.	[4A	-ra	.	.	.	.
=9	=9	=9	=9	=9	=9	=9	=9
4e	-ra	4A]	.	4c	-ra	4a	-ra
4d	for-	4D	for-	4d	for-	4g	for-
1c#X	-tu-	1A	-tu-	1e	-tu-	1a	-tu-
2c#i	-na,	2A	-na,	2e	-na,	2a	-na,
=10	=10	=10	=10	=10	=10	=10	=10
4r	.	0r	.	1r	.	0r	.
4A	e	.	.	.	.	.	.
4A	può	.	.	.	.	.	.
4G	be-	.	.	.	.	.	.
8AL	-a-	.	.	4r	.	.	.
8B	.	.	.	.	.	.	.
8c	.	.	.	4A	e	.	.
8AJ	.	.	.	.	.	.	.
4B	.	.	.	4d	può	.	.
[4c	.	.	.	4e	be-	.	.
=11	=11	=11	=11	=11	=11	=11	=11
4c]	.	2r	.	2f	-a-	2r	.
4B	.	.	.	.	.	.	.
2c	-re	4r	.	2e	-re,	2a	e
.	.	4A	e	.	.	.	.
1r	.	4d	può	2r	.	4a	può
.	.	4e	be-	.	.	4g	be-
.	.	[2f	-a-	4r	.	8aL	-a-
.	.	.	.	.	.	8b	.
.	.	.	.	4a	e	8cc	.
.	.	.	.	.	.	8aJ	.
=12	=12	=12	=12	=12	=12	=12	=12
1r	.	4f]	.	4a	può	4b	.
.	.	4e	.	4g	be-	2cc	.
.	.	2d	.	4a	-a-	.	.
.	.	.	.	8gL	.	4b	.
.	.	.	.	8fJ	.	.	.
2A	E	2c	-re	4e	.	2cc	-re
.	.	.	.	4A	-re	.	.
4c	può	4G	E	2r	.	4r	.
[4G	li-	[4c	può	.	.	4g	E
=13	=13	=13	=13	=13	=13	=13	=13
8G]	.	4c]	.	4A	E	4a	può
8F	-be-	.	.	.	.	.	.
4F	-ri	4.A	li-	2c	può	4.f	li-
2G	far-	.	.	.	.	.	.
.	.	8G	-be-	.	.	8e	-be-
.	.	4G	-ri	4.e	li-	4e	-ri
2D	-ne in	2.A	far-	.	.	2f	far-
.	.	.	.	8d	-be-	.	.
.	.	.	.	4d	-ri	.	.
2A	un,	.	.	[2e	far-	2c	-ne in
.	.	4E	-ne	.	.	.	.
=14	=14	=14	=14	=14	=14	=14	=14
4r	.	2r	.	2e]	.	1.g	un,
4B	in	.	.	.	.	.	.
2e	un,	2E	in	2B	-ne in	.	.
1r	.	2B	un	2d	un	.	.
.	.	2A	mo-	2c	mo-	2e	in
=15	=15	=15	=15	=15	=15	=15	=15
4r	.	0B	-men-	4B	-men-	2g	un
4B	in	.	.	8AL	.	.	.
.	.	.	.	8GJ	.	.	.
2.d	un	.	.	1A	.	2f	mo-
.	.	.	.	.	.	1e	-men-
4c	mo-	.	.	.	.	.	.
2B	-men-	.	.	2G#X	.	.	.
=16	=16	=16	=16	=16	=16	=16	=16
1c#X	-to,	1A	-to,	2A	-to,	2e	-to,
.	.	.	.	2e	Di-	2.a	Di-
1r	.	1r	.	4f	-spen-	.	.
.	.	.	.	4e	-sa-	2cc	-spen-
.	.	.	.	4f	-tri-	.	.
.	.	.	.	4g	-ce	4b	-sa-
=17	=17	=17	=17	=17	=17	=17	=17
2A	Di-	0r	.	2a	no	4cc	-tri-
.	.	.	.	.	.	4dd	-ce
4c	-spen-	.	.	2g	d’o-	2ee	no,
4B	-sa-	.	.	.	.	.	.
4c	-tri-	.	.	4a	-ro o	1r	.
4d	-ce	.	.	4a	d'ar-	.	.
4e	no	.	.	4g	-gen-	.	.
4c#X	d’o-	.	.	8fL	.	.	.
.	.	.	.	8eJ	.	.	.
=18	=18	=18	=18	=18	=18	=18	=18
4d	-ro o	4r	.	2f	.	0r	.
4d	d’ar-	2A	Di-	.	.	.	.
4c	-gen-	.	.	4.e	.	.	.
8BL	.	2c	-spen-	.	.	.	.
8AJ	.	.	.	8f	.	.	.
4.d	.	.	.	2g	-to,	.	.
.	.	4B	-sa-	.	.	.	.
8e	.	.	.	.	.	.	.
4f	.	2c	-tri-	2r	.	.	.
4e	-to,	.	.	.	.	.	.
=19	=19	=19	=19	=19	=19	=19	=19
0r	.	4d	-ce	4r	.	4b	Di-
.	.	4e	no	4g	Di-	2cc	-spen-
.	.	2c	d’o-	4a	-spen-	.	.
.	.	.	.	4f	-sa-	4a	-sa-
.	.	4e	-ro o	4.g	-tri-	4b	-tri-
.	.	4e	d’ar-	.	.	4cc#X	-ce
.	.	.	.	8g	-ce	.	.
.	.	4d	-gen-	4f	no	4dd	no
.	.	8cL	.	8eL	.	4a	d’o-
.	.	8BJ	.	8dJ	.	.	.
=20	=20	=20	=20	=20	=20	=20	=20
2c	d’o-	2A	.	4e	.	4cc	-ro o
.	.	.	.	4e	d'or	4cc	d’ar-
4e	-ro o	2G	-to,	4g	o	4b	-gen-
4e	d’ar-	.	.	4g	d'ar-	8aL	.
.	.	.	.	.	.	8gJ	.
4c	-gen-	4r	.	4f	-gen-	2a	.
8BL	.	4F	d’ar-	8eL	.	.	.
8AJ	.	.	.	8dJ	.	.	.
8BL	.	4G	-gen-	2e	.	2g	-to
8GJ	.	.	.	.	.	.	.
[4c	.	8FL	.	.	.	.	.
.	.	8EJ	.	.	.	.	.
=21	=21	=21	=21	=21	=21	=21	=21
4c]	.	2F	.	2d	-to	2r	.
4B	.	.	.	.	.	.	.
2c	-to	2G	-to	2r	.	4e	O
.	.	.	.	.	.	4e	di
4c	O	1r	.	4e	O	2g	co-
4c	di	.	.	4e	di	.	.
2e	co-	.	.	2g	co-	2c	-se
=22	=22	=22	=22	=22	=22	=22	=22
2A	-se	1r	.	2c	-se	4r	.
.	.	.	.	.	.	4cc	che
4r	.	.	.	2f	che	2a	man-
4d	che	.	.	.	.	.	.
4B	man-	2r	.	4d	man-	4g#X	-di e-
4A	-di e-	.	.	4c	-di e-	2a	-stra-
4c	-stra-	4A	O	4e	-stra-	.	.
4f	-no	4A	di	4a	-no	4cc	-no
=23	=23	=23	=23	=23	=23	=23	=23
2e	ma-	2c	co-	2g	ma-	2cc	ma-
4f	-re,	2F	-se	2a	-re,	2cc	-re,
4c	che	.	.	.	.	.	.
4A	man-	2c	che	4r	.	4r	.
4G	-di e-	.	.	4g	che	4ee	che
4A	-stra-	4A	man-	4f	man-	4cc	man-
4d	-no	4G	-di e-	4d	-di e-	4b	-di e-
=24	=24	=24	=24	=24	=24	=24	=24
1d	ma-	4A	-stra-	4f#X	-stra-	4dd	-stra-
.	.	4B	-no	4g	-no	4b	-no
.	.	2d	ma-	2f#X	ma-	2a	ma-
2B	-re,	2d	-re,	2g	-re,	2b	-re,
[2G	Ma i	[2e	Ma i	[2g	Ma i	[2cc	Ma i
=25	=25	=25	=25	=25	=25	=25	=25
4G]	.	2e]	.	2g]	.	2cc]	.
4G	te-	.	.	.	.	.	.
1c	-so-	2e	te-	2g	te-	2cc	te-
.	.	1f	-so-	1a	-so-	1cc	-so-
[2A	-ri	.	.	.	.	.	.
=26	=26	=26	=26	=26	=26	=26	=26
2A]	.	2f	-ri	2.a	-ri	2dd	-ri
2A	d’a-	2e	d’a-	.	.	2ee	d’a-
.	.	.	.	4a	d’a-	.	.
1B	-mor,	1e	-mor,	1g#X	-mor,	1b	-mor,
=27	=27	=27	=27	=27	=27	=27	=27
2r	.	2r	.	0r	.	2r	.
2.B	co-	2.d	co-	.	.	2.g	co-
4B	-se	4d	-se	.	.	4g	-se
2c	più	2c	più	.	.	2f#X	più
=28	=28	=28	=28	=28	=28	=28	=28
*lig	*	*	*	*	*	*	*
1e	ca-	4B	ca-	0r	.	0g	ca-
.	.	4G	.	.	.	.	.
.	.	2.c	.	.	.	.	.
1d	.	.	.	.	.	.	.
*Xlig	*	*	*	*	*	*	*
.	.	8BL	.	.	.	.	.
.	.	8AJ	.	.	.	.	.
.	.	2B	.	.	.	.	.
=29	=29	=29	=29	=29	=29	=29	=29
2f	-re,	2c	-re,	1r	.	1a	-re,
8FL	Fu-	8AL	Fu-	.	.	.	.
8G	.	8B	.	.	.	.	.
8A	.	8c	.	.	.	.	.
8BJ	.	8dJ	.	.	.	.	.
2c	.	2e	.	2r	.	4r	.
.	.	.	.	.	.	8gL	Fu-
.	.	.	.	.	.	8aJ	.
2B	-ra,	2d	-ra,	4r	.	8bL	.
.	.	.	.	.	.	8ccJ	.
.	.	.	.	[4d	do-	4dd	.
=30	=30	=30	=30	=30	=30	=30	=30
4r	.	4r	.	8d]L	.	2a	-ra,
.	.	.	.	16c	.	.	.
.	.	.	.	16BJ	.	.	.
4.c	do-	4.A	do-	4A	.	.	.
.	.	.	.	2e	-na,	4r	.
16BL	.	16GL	.	.	.	.	.
16AJ	.	16FJ	.	.	.	.	.
4G	.	4E	.	.	.	4.ee	do-
4B	-na,	2G	-na,	4r	.	.	.
.	.	.	.	.	.	16ddL	.
.	.	.	.	.	.	16ccJ	.
4.d	do-	.	.	8dL	Fu-	4b	.
.	.	.	.	8eJ	.	.	.
.	.	4r	.	8fL	.	2dd	-na,
16cL	.	.	.	8gJ	.	.	.
16BJ	.	.	.	.	.	.	.
4A	.	8FL	Fu-	[4a	.	.	.
.	.	8GJ	.	.	.	.	.
=31	=31	=31	=31	=31	=31	=31	=31
2c	-na,	8AL	.	4a]	.	2r	.
.	.	8BJ	.	.	.	.	.
.	.	2c	.	4f	-ra,	.	.
4r	.	.	.	2r	.	8gL	Fu-
.	.	.	.	.	.	8a	.
8GL	Fu-	4B	-ra,	.	.	8b	.
8AJ	.	.	.	.	.	8ccJ	.
8BL	.	2r	.	4r	.	4dd	.
8cJ	.	.	.	.	.	.	.
4d	.	.	.	4.f	do-	2a	-ra,
2c	-ra,	4r	.	.	.	.	.
.	.	.	.	16eL	.	.	.
.	.	.	.	16dJ	.	.	.
.	.	[4e	do-	4c	.	[4cc	do-
=32	=32	=32	=32	=32	=32	=32	=32
4r	.	8e]L	.	2g	-na	8cc]L	.
.	.	16d	.	.	.	16b	.
.	.	16cJ	.	.	.	16aJ	.
4.G	do-	4B	.	.	.	4g	.
.	.	2d	-na	4r	.	2a	-na
16FL	.	.	.	.	.	.	.
16EJ	.	.	.	.	.	.	.
4D	.	.	.	8f#X	e	.	.
.	.	.	.	8f#i	ri-	.	.
2E	-na	4r	.	2.g	-to-	4r	.
.	.	8G	e	.	.	8cc	e
.	.	8G	ri-	.	.	8cc	ri-
2r	.	4B	-to-	.	.	4dd	-to-
.	.	4d	-glie a	4g	-glie a	4b	-glie a
=33	=33	=33	=33	=33	=33	=33	=33
2r	.	8d	suo	8g	suo	4.b	suo
.	.	8B	ta-	8d	ta-	.	.
.	.	2e	-len-	2g	-len-	.	.
.	.	.	.	.	.	8g	ta-
4r	.	.	.	.	.	2cc	-len-
8c	e	4A	-to,	4f#X	.	.	.
8c	ri-	.	.	.	.	.	.
4d	-to-	4r	.	1g	-to,	2b	-to,
4G	-glie a	4B	a	.	.	.	.
4G	suo	4B	suo	.	.	2r	.
4E	ta-	4G	ta-	.	.	.	.
=34	=34	=34	=34	=34	=34	=34	=34
2A	-len-	2c	-len-	1r	.	2r	.
4G	-to,	4B	-to,	.	.	4r	.
4B	a	4E	<a	.	.	4g	a
4B	suo	2E	suo	4r	.	2.g	suo
4G	ta-	.	.	4e	a	.	.
[2c	-len-	2C	ta-	4e	suo	.	.
.	.	.	.	4c	ta-	4e	ta-
=35	=35	=35	=35	=35	=35	=35	=35
4c]	.	1G	-len-	1d	-len-	1g	-len-
8BL	.	.	.	.	.	.	.
8AJ	.	.	.	.	.	.	.
2B	.	.	.	.	.	.	.
[1c	-to.	[1G	-to>.	[1e	-to.	[1g	-to.
=36	=36	=36	=36	=36	=36	=36	=36
0c]	.	0G]	.	0e]	.	0g]	.
=||37	=||37	=||37	=||37	=||37	=||37	=||37	=||37
!!LO:TX:a:t=Seconda parte.
2r	.	1c	Cie-	2r	.	2r	.
1e	Cie-	.	.	1g	Cie-	1cc	Cie-
.	.	2A	-ca	.	.	.	.
4d	-ca	2d	non	4f	-ca	4b	-ca
4d	non	.	.	4f	non	4b	non
=38	=38	=38	=38	=38	=38	=38	=38
1e	già,	1c	già,	1g	già,	1cc	già,
1r	.	2r	.	2r	.	2r	.
.	.	[2d	<Cie-	[2g	<Cie-	[2b	<Cie-
=39	=39	=39	=39	=39	=39	=39	=39
0r	.	2d]	.	2g]	.	2b]	.
.	.	4c	-ca	4f#X	-ca	4a	-ca
.	.	4c	non	4f#i	non	4a	non
.	.	4d	già,>	2g	già,>	2.b	già,>
.	.	4d	se	.	.	.	.
.	.	2e	non	2g	se	.	.
.	.	.	.	.	.	[4g	se
=40	=40	=40	=40	=40	=40	=40	=40
1r	.	2c	quan-	4e	non	4g]	.
.	.	.	.	2e	quan-	4a	non
.	.	2B	-do	.	.	2f#X	quan-
.	.	.	.	4d#X	.	.	.
4r	.	2r	.	1e	-do	1g	-do
2c	a i	.	.	.	.	.	.
.	.	4d	a i	.	.	.	.
4G	mar-	4B	mar-	.	.	.	.
=41	=41	=41	=41	=41	=41	=41	=41
4A	-ti-	4c	-ti-	4r	.	2r	.
4G	-ri	4B	-ri	2d	a i	.	.
2F#X	No-	2A	No-	.	.	2.dd	a i
.	.	.	.	4A	mar-	.	.
2G	-stri	2d	-stri	4.B	-ti-	.	.
.	.	.	.	.	.	4g	mar-
.	.	.	.	8A	-ri	.	.
4r	.	2d	s’in-	4G	No-	4b	-ti-
4A	s’in-	.	.	4F#X	-stri,	4a	-ri
=42	=42	=42	=42	=42	=42	=42	=42
2.e	-fin-	4.B	-fin-	2r	.	2g#X	No-
.	.	8B	-ge	.	.	.	.
.	.	2A	tal,	4r	.	4a	-stri
4e	-ge	.	.	2a	a i	4e	s’in-
1A	tal,	2r	.	.	.	4.f	-fin-
.	.	.	.	4d	mar-	.	.
.	.	.	.	.	.	8f	-ge
.	.	4r	.	4f	-ti-	2c	tal,
.	.	4E	s’in-	4e	-ri	.	.
=43	=43	=43	=43	=43	=43	=43	=43
1r	.	4.F	-fin-	2d	No-	4r	.
.	.	.	.	.	.	4a	s’in-
.	.	8F	-ge	.	.	.	.
.	.	2E	tal,	4B	-stri	4.b	-fin-
.	.	.	.	4e	s’in-	.	.
.	.	.	.	.	.	8b	-ge
2r	.	2c	cie-	4.f	-fin-	2a	tal,
.	.	.	.	8f	-ge	.	.
2c	cie-	4c	-chi	2e	tal,	[2cc	cie-
.	.	[4A	noi	.	.	.	.
=44	=44	=44	=44	=44	=44	=44	=44
4c	-chi	4A]	.	2.f	cie-	4cc]	.
4A	noi	4.c	ren-	.	.	4cc	-chi
8FL	ren-	.	.	.	.	2a	noi
8G	.	8BL	.	.	.	.	.
8A	.	8c	.	4f	-chi	.	.
8FJ	.	8dJ	.	.	.	.	.
1G	.	8eL	.	2e	noi	1g	ren-
.	.	8dJ	.	.	.	.	.
.	.	2c	.	.	.	.	.
.	.	.	.	2d	ren-	.	.
.	.	4B	.	.	.	.	.
=45	=45	=45	=45	=45	=45	=45	=45
2G	-de	1c	-de	1e	-de	2g	-de
2c	Con	.	.	.	.	2a	Con
1B	due	1r	.	2.d	Con	2b	due
.	.	.	.	.	.	[2dd	lu-
.	.	.	.	4e	due	.	.
=46	=46	=46	=46	=46	=46	=46	=46
2A	lu-	2r	.	2f	lu-	2dd]	.
4c	-ci	1A	Con	4e	-ci	4cc	-ci
4d	se-	.	.	4d	se-	4b	se-
2.e	-re-	.	.	2c	-re-	2a	-re-
.	.	2G#X	due	4B	-n’e	2ee	-n’e
4E	-n’e	.	.	[4c	fiam-	.	.
=47	=47	=47	=47	=47	=47	=47	=47
4.A	fiam-	2A	lu-	4c]	.	2cc	fiam-
.	.	.	.	4c	-meg-	.	.
8G	-meg-	.	.	.	.	.	.
2F	-gian-	4A	-ci	2f	-gian-	2dd	-meg-
.	.	4B	se-	.	.	.	.
4G	-ti,	4c	-re-	2e	-ti,	2ee	-gian-
4G	e	4d	-n’e	.	.	.	.
[2c	fiam-	4e	fiam-	2g	e	2cc	-ti,
.	.	4e	-meg-	.	.	.	.
=48	=48	=48	=48	=48	=48	=48	=48
2c]	.	4.f	-gian-	4a	fiam-	2r	.
.	.	.	.	4a	-meg-	.	.
.	.	8e	.	.	.	.	.
2B	-meg-	2d	.	4.g	-gian-	2b	e
.	.	.	.	8f	.	.	.
2.e	-gian-	4c	-ti,	8eL	.	4.cc	fiam-
.	.	.	.	8d	.	.	.
.	.	4A	e	8c	.	.	.
.	.	.	.	8BJ	.	8dd	-meg-
.	.	4c#X	fiam-	4A	.	4ee	-gian-
4f	.	4d	-meg-	[4a	.	[4dd	.
=49	=49	=49	=49	=49	=49	=49	=49
2e	.	1e	-gian-	4a]	.	4dd]	.
.	.	.	.	8gL	.	8cc#iL	.
.	.	.	.	8fJ	.	8bJ	.
2A	.	.	.	2e	.	2cc#X	.
1A	-ti.	1d	-ti.	1f#X	-ti.	1dd	-ti.
=50	=50	=50	=50	=50	=50	=50	=50
2r	.	2r	.	2r	.	2r	.
1G	Chie-	1d	Chie-	1g	Chie-	1b	Chie-
2G	-di	2d	-di	2g	-di	2b	-di
=51	=51	=51	=51	=51	=51	=51	=51
1r	.	4B	qual	4r	.	2r	.
.	.	2c	sia	4e	qual	.	.
.	.	.	.	2f	sia	4a	qual
.	.	4A	la	.	.	2cc	sia
2r	.	8GL	ro-	4d	la	.	.
.	.	8A	.	.	.	.	.
.	.	8B	.	2g	ro-	4b	la
.	.	8GJ	.	.	.	.	.
4d	o-	2A	.	.	.	2dd	ro-
8d	-ve	.	.	4f#X	.	.	.
8d	gl’a-	.	.	.	.	.	.
=52	=52	=52	=52	=52	=52	=52	=52
4e	-man-	4B	-ta o-	2g	-ta,	2b	-ta,
8B	-ti	8B	-ve	.	.	.	.
8d	Tra-	8B	gl’a-	.	.	.	.
8cL	-vol-	4c	-man-	2r	.	2r	.
8dJ	.	.	.	.	.	.	.
2e	.	8G	-ti	.	.	.	.
.	.	8B	Tra-	.	.	.	.
.	.	2A	-vol-	1r	.	1r	.
4d	.	.	.	.	.	.	.
2e	-ve,	2B	-ve,	.	.	.	.
=53	=53	=53	=53	=53	=53	=53	=53
2r	.	2r	.	2r	.	2r	.
1e	Chie-	1c	Chie-	1g	Chie-	1cc	Chie-
2e	-di	2c	-di	2g	-di	2cc	-di
=54	=54	=54	=54	=54	=54	=54	=54
4c	qual	4e	qual	2r	.	4r	.
2d	sia	2f	sia	.	.	4a	qual
.	.	.	.	4d	qual	2b-X	sia
4B-X	la	4d	la	2f	sia	.	.
4.c	ro-	8cL	ro-	.	.	4g	la
.	.	8d	.	.	.	.	.
.	.	8e	.	4e	la	2cc	ro-
16BnXiL	.	8cJ	.	.	.	.	.
16AJ	.	.	.	.	.	.	.
2G	.	2d	.	2g	ro-	.	.
.	.	.	.	.	.	4b-i	-ta
=55	=55	=55	=55	=55	=55	=55	=55
2A	-ta	1c	-ta	4e	-ta o-	2r	.
.	.	.	.	8e	-ve	.	.
.	.	.	.	8e	gl’a-	.	.
2r	.	.	.	4f	-man-	4cc	o-
.	.	.	.	8c	-ti	8cc	-ve
.	.	.	.	8e	Tra-	8cc	gl’a-
1r	.	1r	.	8dL	-vol-	4dd	-man-
.	.	.	.	8eJ	.	.	.
.	.	.	.	2f	.	8a	-ti
.	.	.	.	.	.	8cc	Tra-
.	.	.	.	.	.	2b-X	-vol-
.	.	.	.	4e	.	.	.
=56	=56	=56	=56	=56	=56	=56	=56
4c	o-	4r	.	2f	-ve,	2a	-ve,
8c	-ve	4F	o-	.	.	.	.
8c	gl’a-	.	.	.	.	.	.
4d	-man-	8F	-ve	2r	.	2r	.
.	.	8F	gl’a-	.	.	.	.
8B	-ti	4G	-man-	.	.	.	.
8d	Tra-	.	.	.	.	.	.
4c	-vol-	8E	-ti	4e	o-	1r	.
.	.	8A	Tra-	.	.	.	.
4B	-ve,	2G	-vol-	8e	-ve	.	.
.	.	.	.	8e	gl’a-	.	.
2r	.	.	.	4g	-man-	.	.
.	.	4C	-ve	8e	-ti	.	.
.	.	.	.	8g	Tra-	.	.
=57	=57	=57	=57	=57	=57	=57	=57
4A	o-	0r	.	2f	-vol-	4r	.
8A	-ve	.	.	.	.	4a	o-
8A	gl’a-	.	.	.	.	.	.
4c	-man-	.	.	2e	-ve,	8a	-ve
.	.	.	.	.	.	8a	gl’a-
8G	-ti	.	.	.	.	4cc	-man-
8A	Tra-	.	.	.	.	.	.
2F	-vol-	.	.	4d	Tra-	8a	-ti
.	.	.	.	.	.	8dd	Tra-
.	.	.	.	2a	-vol-	2cc	-vol-
2E	-ve,	.	.	.	.	.	.
.	.	.	.	4g#X	-ve	4b	-ve
=58	=58	=58	=58	=58	=58	=58	=58
0r	.	4r	.	4r	.	4r	.
.	.	4B	e ’l	4e	e ’l	4g#X	e ’l
.	.	2c#X	dub-	2e	dub-	2a	dub-
.	.	4d	-bio	4g	-bio	4b	-bio
.	.	4e	lor	4g	lor	4cc#X	lor
.	.	2f	sta-	[2a	sta-	2dd	sta-
=59	=59	=59	=59	=59	=59	=59	=59
0r	.	2e	-to	4a]	.	4b	-to
.	.	.	.	2g	-to	2cc	so-
.	.	4d	so-	.	.	.	.
.	.	4.e	-spen-	4g	so-	2b	-spen-
.	.	.	.	4.c	-spen-	.	.
.	.	8dL	.	.	.	.	.
.	.	8c	.	.	.	8aL	.
.	.	8BJ	.	8d	.	8gJ	.
.	.	2c	.	4e	.	2a	.
.	.	.	.	4f#X	.	.	.
=60	=60	=60	=60	=60	=60	=60	=60
2r	.	1d	-de?	2g	.	1b	-de?
4r	.	.	.	2g	-de?	.	.
4G	La	.	.	.	.	.	.
8dL	ro-	2G	La	1r	.	1r	.
8c	.	.	.	.	.	.	.
8B	.	.	.	.	.	.	.
8cJ	.	.	.	.	.	.	.
4d	.	8BL	ro-	.	.	.	.
.	.	8A	.	.	.	.	.
4c	-ta	8G	.	.	.	.	.
.	.	8AJ	.	.	.	.	.
=61	=61	=61	=61	=61	=61	=61	=61
4.B	sua,	4B	.	2r	.	1r	.
.	.	4G	-ta	.	.	.	.
16AL	.	.	.	.	.	.	.
16GJ	.	.	.	.	.	.	.
2A	.	2F#X	sua,	4r	.	.	.
.	.	.	.	4d	son	.	.
1r	.	1r	.	4.d	de’	4a	son
.	.	.	.	.	.	4.a	de’
.	.	.	.	8e	be-	.	.
.	.	.	.	4f	-gl’oc-	.	.
.	.	.	.	.	.	8b	be-
.	.	.	.	4e	-ch’i	[4cc	-gl’oc-
=62	=62	=62	=62	=62	=62	=62	=62
1r	.	2r	.	2.a	gi-	4cc]	.
.	.	.	.	.	.	4a	-ch’i
.	.	2E	La	.	.	2b	gi-
.	.	.	.	4g#X	-ri,	.	.
2A	La	8eL	ro-	1r	.	1a	-ri,
.	.	8d	.	.	.	.	.
.	.	8c	.	.	.	.	.
.	.	8dJ	.	.	.	.	.
8cL	ro-	4e	.	.	.	.	.
8B	.	.	.	.	.	.	.
8A	.	4d	-ta	.	.	.	.
8BJ	.	.	.	.	.	.	.
=63	=63	=63	=63	=63	=63	=63	=63
4c	.	4.c	sua	1r	.	2r	.
4A	-ta	.	.	.	.	.	.
.	.	16BL	.	.	.	.	.
.	.	16AJ	.	.	.	.	.
4.G	sua	4B	.	.	.	4r	.
.	.	4G	son	.	.	4g	La
8A	.	.	.	.	.	.	.
8BL	.	4.G	de’	2r	.	8ddL	ro-
8cJ	.	.	.	.	.	8cc	.
4d	.	.	.	.	.	8b	.
.	.	8A	be-	.	.	8ccJ	.
2r	.	4B	-gl’oc-	2d	La	4dd	.
.	.	4G	-ch’i	.	.	4b	-ta
=64	=64	=64	=64	=64	=64	=64	=64
2r	.	2d	gi-	8fL	ro-	4a	sua,
.	.	.	.	8e	.	.	.
.	.	.	.	8d	.	4f	La
.	.	.	.	8eJ	.	.	.
4A	son	2d	-ri,	4f	.	8aL	ro-
.	.	.	.	.	.	8g	.
4.A	de’	.	.	4d	-ta	8f	.
.	.	.	.	.	.	8gJ	.
.	.	1r	.	4c	sua	4a	.
8B	be-	.	.	.	.	.	.
2c	-gl’oc-	.	.	4c	son	4g	-ta
.	.	.	.	4.c	de’	4.e	sua
4A	-ch’i	.	.	.	.	.	.
.	.	.	.	8d	be-	8f	.
=65	=65	=65	=65	=65	=65	=65	=65
8BL	gi-	1r	.	4e	-gl’oc-	4g	.
8c	.	.	.	.	.	.	.
8d	.	.	.	4B	-ch’i	4g	son
8cJ	.	.	.	.	.	.	.
2B	.	.	.	4d	gi-	4.g	de’
.	.	.	.	4e	-ri,	.	.
.	.	.	.	.	.	8a	be-
2B	-ri,	4r	.	4r	.	4b	-gl’oc-
.	.	4B	La	4e	La	4g	-ch’i
2r	.	8eL	ro-	8gL	ro-	[2cc	gi-
.	.	8d	.	8f	.	.	.
.	.	8c	.	8e	.	.	.
.	.	8dJ	.	8fJ	.	.	.
=66	=66	=66	=66	=66	=66	=66	=66
4r	.	4e	.	4g	.	2cc]	.
4A	La	4c	.	4f#X	-ta	.	.
8dL	ro-	2.G	-ta	2g	sua	2b	-ri,
8c	.	.	.	.	.	.	.
8B	.	.	.	.	.	.	.
8cJ	.	.	.	.	.	.	.
4d	.	.	.	2r	.	4r	.
4c	-ta	4A	son	.	.	4e	La
2c	sua	4.A	de’	4r	.	8eeL	ro-
.	.	.	.	.	.	8dd	.
.	.	.	.	4e	son	8cc	.
.	.	8B	be-	.	.	8ddJ	.
=67	=67	=67	=67	=67	=67	=67	=67
1r	.	4c	-gl’oc-	4.e	de'	4ee	.
.	.	4A	-ch’i	.	.	4cc	-ta
.	.	.	.	8f	be-	.	.
.	.	2e	gi-	2g	-gl’oc-	4b	sua
.	.	.	.	.	.	4g	son
4G	son	1B	-ri,	2e	-ch’i	4.g	de’
4.G	de’	.	.	.	.	.	.
.	.	.	.	.	.	8a	be-
.	.	.	.	4d	gi-	4b	-gl’oc-
8A	be-	.	.	.	.	.	.
[4B	-gl’oc-	.	.	[4e	.	4g	-ch’i
=68	=68	=68	=68	=68	=68	=68	=68
4B]	.	0r	.	4e]	.	1a	gi-
4A	-ch’i	.	.	8dL	.	.	.
.	.	.	.	8cJ	.	.	.
2A	gi-	.	.	2d	.	.	.
2B	-ri,	.	.	2e	-ri,	2g#X	-ri,
4r	.	.	.	4r	.	4r	.
4e	son	.	.	4g	son	4cc	son
=69	=69	=69	=69	=69	=69	=69	=69
4.e	de’	1G	son	2.g	de’	4.cc	de’
8d	be-	.	.	.	.	8dd	be-
2c	-gl’oc-	.	.	.	.	2.ee	-gl’oc-
.	.	.	.	4f	be-	.	.
2B	-ch’i	4.G	de’	4e	-gl’oc-	.	.
.	.	.	.	4g	-ch’i	2b	-ch’i
.	.	8A	be-	.	.	.	.
4.d	gi-	4B	-gl’oc-	[2g	gi-	.	.
.	.	4G	-ch’i	.	.	[4dd	gi-
16cL	.	.	.	.	.	.	.
16BJ	.	.	.	.	.	.	.
=70	=70	=70	=70	=70	=70	=70	=70
4A	.	1A	gi-	2g]	.	4dd]	.
4D	.	.	.	.	.	8ccL	.
.	.	.	.	.	.	8bJ	.
2d	.	.	.	2f#X	.	2a	.
1dl	-ri.	1Gl	-ri.	1gl	-ri.	1bl	-ri.
==	==	==	==	==	==	==	==
*-	*-	*-	*-	*-	*-	*-	*-
!!!system-decoration: [*]
!!!YEM:	Scipione Dentice, "Costei che in su la fronte ha sparsa il vento," 1598 (Trm0081b; August 2018) Tasso in Music Project (http://www.tassomusic.org) Copyright 2016 Emiliano Ricciardi
!!!RDF**kern: i = editorial accidental
!!!RDF**kern: l = terminal long
!!!ENC: Emiliano Ricciardi
!!!END: 2018
!!!EED: Deutsch, Catherine
!!!EEV: 2018/09/18
!!!YEC: Copyright 2018 Emiliano Ricciardi, All Rights Reserved
!!!ONB: Translated from MusicXML on 2018/09/18 and edited by Craig Stuart Sapp
!!@@BEGIN:	VERSEDATA
!!@SOLERTI:	81
!!@CATALOGNUM:	Trm0081
!!@LAST_MODIFIED: 2020/07/12
!!@TITLE:		Costei, che su la fronte ha sparsa al vento
!!@GENRE:		sonetto
!!@MANUSRC:	A<sub>3</sub>, Amz, Ar, Brn, C, I<sub>4</sub>, I<sub>5</sub>, N<sub>14</sub>, P<sub>4</sub>, V<sub>2</sub>, V<sub>8</sub>, W
!!@PRINTSRC:	7, 8, 9, 11, 12, 13, 15, 20, 24, 29, 33, 67, 85, 87, 141, 166, 169, 170
!!@@BEGIN:	VERSES
!!@ABOUTIT:	Assomiglia a la Fortuna la sua donna, la quale egli aveva veduta co' capegli sparsi su la fronte.
!!@ABOUTEN:	He compares to Fortune his lady, whom he had seen with her hair strewn over her brow.
!!@EDITOR:	Solerti, Angelo
!!@EDITION_TITLE: Le Rime di Torquato Tasso
!!@EDITION_LOC:	Bologna
!!@EDITION_PUB:	Romagnoli-Dall’Acqua
!!@EDITION_DATE:  1898-1902
!!@EDITION_VOL:	2
!!@EDITION_PAGE:  117
!!@TRANSLATOR:	Emiliano Ricciardi and Amyrose McCue Gill
!!@VERSE:
!!	Costei, che su la fronte ha sparsa al vento
!!	L'errante chioma d'òr, Fortuna pare;
!!	Anzi è vera Fortuna, e può beare
!!	E misero può far il più contento.
!!@VERSE:
!!	Dispensatrice no d'oro o d'argento
!!	O di gemme che mandi estraneo mare,
!!	Ma tesori d'Amor, cose più care,
!!	Fura, dona, e ritoglie in un momento.
!!@VERSE:
!!	Cieca non già, ma solo a' miei martìri
!!	Par che s'infligga tale, e cieco uom rende
!!	Con due luci serene e sfavillanti.
!!@VERSE:
!!	Chiedi qual sia la rota ove gli amanti
!!	Travolve e 'l corso lor ferma e sospende?
!!	La rota fanno or de' begli occhi i giri.
!!@TVERSE:
!!	She, upon whose brow the wind has strewn
!!	Her wandering golden locks, appears to be Fortune;
!!	Indeed, she is truly Fortune and can delight,
!!	And can make the happiest man miserable.
!!@TVERSE:
!!	Giver—not of gold or of silver,
!!	Or of gems sent over by a foreign sea—
!!	But treasures of Love, things most dear,
!!	She steals, gives, and retakes in a moment.
!!@TVERSE:
!!	Not yet blind, but only to my sufferings
!!	She appears to pretend to be so, and makes a man blind
!!	With two fair and sparkling eyes.
!!@TVERSE:
!!	Ask [yourself] which is the wheel upon which lovers
!!	Are overwhelmed, and whose flow stops and suspends them?
!!	Now the glances from her beautiful eyes turn the wheel.
!!@@END:		VERSES
!!@OTHER_CRIT_ED:   Torquato Tasso, <i>Rime d’amore (secondo il codice
!!		Chigiano L VIII 302)</i>, eds. Franco Gavazzeni and
!!		Vercingetorige Martignone, vol. 4 of <i>Edizione
!!		Nazionale delle opere di Torquato Tasso</i>
!!		(Alessandria: Edizioni Dell’Orso, 2004), 60.
!!@ATTRIBUTION_ABOUT:	Secure
!!		<br>
!!		Among other authoritative sources (see Literary
!!		Sources), this poem appears in the autograph Chigiano
!!		L.VIII.302 (Biblioteca Vaticana, Rome), compiled
!!		around 1584&ndash;85.
!!@DATING:
!!@DEDICATEE:	Bendidio, Lucrezia
!!@COMMENTARY:
!!@@END:		VERSEDATA
!!@@BEGIN:	SETTING
!!@CATALOGNUM:	Trm0081b
!!@RIMETITLE:	Costei, che su la fronte ha sparsa al vento
!!@SOLERTI:	81
!!@COMPOSER:	Dentice, Scipione
!!@PRINCEPSTITLE:	Il terzo libro de madrigali a cinque voci
!!@PRINCEPSLOC:	Napoli
!!@NORMLOC:	Naples
!!@NORMPUB:	Giovanni Giacomo Carlino & Antonio Pace
!!@NORMPUBSHORT:	Carlino & Pace
!!@PRINCEPSPUB:	Carlino & Pace
!!@PRINCEPSYEAR:	1598
!!@PRINCEPSRISM:	D 1663
!!@REPRINTS:	
!!@OVOICES:	5
!!@EXTANTVOICES:	4
!!@PARTBOOKS:	
!!@EXTPARTBOOKS:	
!!@OCLEFS:	C1,C3,C4,C4
!!@OMENSURATION:	C
!!@OKEYSIG:	-
!!@FINAL:	G
!!@TIMPEDITOR:	Deutsch, Catherine
!!@NOTE:		
!!@@END:		SETTING
